svgs/sharp-light/vector-polygon.svg

<svg xmlns="http://www.w3.org/2000/svg" viewBox="0 0 448 512"><!--! Font Awesome Pro 6.6.0 by @fontawesome - https://fontawesome.com License - https://fontawesome.com/license (Commercial License) Copyright 2024 Fonticons, Inc. --><path d="M416 64l0 64-64 0 0-64 64 0zM352 32l-32 0 0 32 0 16L128 80l0-16 0-32L96 32 32 32 0 32 0 64l0 64 0 32 32 0 16 0 0 192-16 0L0 352l0 32 0 64 0 32 32 0 64 0 32 0 0-32 0-16 192 0 0 16 0 32 32 0 64 0 32 0 0-32 0-64 0-32-32 0-51.7 0-19.2-32 6.9 0 0-32 0-64 0-32-6.9 0 19.2-32 51.7 0 32 0 0-32 0-64 0-32-32 0-64 0zM307.7 320l19.2 32-6.9 0 0 32 0 16-192 0 0-16 0-32-32 0-16 0 0-192 16 0 32 0 0-32 0-16 192 0 0 16 0 32 6.9 0-19.2 32L256 192l-32 0 0 32 0 64 0 32 32 0 51.7 0zM32 384l64 0 0 64-64 0 0-64zm320 0l64 0 0 64-64 0 0-64zM256 224l64 0 0 64-64 0 0-64zM96 64l0 64-64 0 0-64 64 0z"/></svg>

<svg xmlns="http://www.w3.org/2000/svg" viewBox="0 0 448 512"><!--! Font Awesome Pro 6.4.2 by @fontawesome - https://fontawesome.com License - https://fontawesome.com/license (Commercial License) Copyright 2023 Fonticons, Inc. --><path d="M416 64v64H352V64h64zM352 32H320V64 80H128V64 32H96 32 0V64v64 32H32 48l0 192H32 0v32 64 32H32 96h32V448 432H320v16 32h32 64 32V448 384 352H416 364.3l-19.2-32H352V288 224 192h-6.9l19.2-32H416h32V128 64 32H416 352zM307.7 320l19.2 32H320v32 16H128V384 352H96 80l0-192H96h32V128 112H320v16 32h6.9l-19.2 32H256 224v32 64 32h32 51.7zM32 384H96v64H32V384zm320 0h64v64H352V384zM256 224h64v64H256V224zM96 64v64H32V64H96z"/></svg>
